assets/icons/folder/simple-filled.svg

<?xml version="1.0" encoding="UTF-8" standalone="no"?>
<svg
   viewBox="0 0 24 24"
   height="24"
   width="24"
   version="1.1"
   id="svg4"
   sodipodi:docname="simple-filled.svg"
   inkscape:version="1.2 (1:1.2.1+202207142221+cd75a1ee6d)"
   xmlns:inkscape="http://www.inkscape.org/namespaces/inkscape"
   xmlns:sodipodi="http://sodipodi.sourceforge.net/DTD/sodipodi-0.dtd"
   xmlns="http://www.w3.org/2000/svg"
   xmlns:svg="http://www.w3.org/2000/svg">
  <defs
     id="defs8" />
  <sodipodi:namedview
     id="namedview6"
     pagecolor="#ffffff"
     bordercolor="#666666"
     borderopacity="1.0"
     inkscape:pageshadow="2"
     inkscape:pageopacity="0.0"
     inkscape:pagecheckerboard="0"
     showgrid="true"
     inkscape:zoom="19.797143"
     inkscape:cx="26.973589"
     inkscape:cy="3.8389378"
     inkscape:window-width="1920"
     inkscape:window-height="1043"
     inkscape:window-x="0"
     inkscape:window-y="0"
     inkscape:window-maximized="1"
     inkscape:current-layer="svg4"
     inkscape:showpageshadow="2"
     inkscape:deskcolor="#d1d1d1">
    <inkscape:grid
       type="xygrid"
       id="grid821" />
    <inkscape:grid
       type="xygrid"
       id="grid823"
       dotted="true"
       spacingx="0.5"
       spacingy="0.5"
       empspacing="10" />
  </sodipodi:namedview>
  <path
     id="path2528"
     style="color:#000000;fill:#808080;-inkscape-stroke:none"
     d="M 5.5 3 C 4.2166692 3 3.3148419 3.1031268 2.7089844 3.7089844 C 2.1031268 4.3148419 2 5.2166692 2 6.5 L 2 17.5 C 2 18.783331 2.1031268 19.685157 2.7089844 20.291016 C 3.3148419 20.896873 4.2166692 21 5.5 21 L 18.5 21 C 19.783331 21 20.685157 20.896873 21.291016 20.291016 C 21.896873 19.685157 22 18.783331 22 17.5 L 22 9.5 C 22 8.2166693 21.896873 7.3148424 21.291016 6.7089844 C 20.685157 6.1031268 19.783331 6 18.5 6 L 13.707031 6 L 10.707031 3 L 5.5 3 z " />
</svg>

<svg height="24" width="24" xmlns="http://www.w3.org/2000/svg"><path style="color:#000;fill:gray;-inkscape-stroke:none" d="M5.5 3c-1.283 0-2.185.103-2.791.709C2.103 4.315 2 5.217 2 6.5v11c0 1.283.103 2.185.709 2.791.606.606 1.508.709 2.791.709h13c1.283 0 2.185-.103 2.791-.709.606-.606.709-1.508.709-2.791v-8c0-1.283-.103-2.185-.709-2.791C20.685 6.103 19.783 6 18.5 6h-4.793l-3-3H5.5z"/></svg>
